X:487
T: ICH WEISS MIR EIN MAIDLEIN
N: E0445
O: Europa, Mitteleuropa, Deutschland
R: Liebes - Lied, Spott
M: 3/4
L: 1/8
K: G
G2 | G3GG2 | A4B2 | c4B2 | A6 |
B4A2 | G4
G2 | B3Bc2 | d4d2 | A4B2 | c4
c2 | B4c2 | d4d2 | A4B2 | c6 |
B4A2 | G4z2 |
B4c2 | d4d2 | A4B2 | c4
c2 | B2A4 | G4c2 | B2A4 | G4

@@@ Tune index: 4137
